dist/img/copy.svg

<svg width="45" height="45" viewBox="0 0 45 45" fill="none" xmlns="http://www.w3.org/2000/svg">
<g clip-path="url(#clip0_12_290)">
<path d="M0 22.5005C0 34.9279 10.0728 45.0004 22.4996 45C34.9272 45.0004 45 34.9279 45 22.5005C45.0008 10.0731 34.9272 0 22.4996 0C10.0728 0 0 10.0735 0 22.5005Z" fill="#FA6E51"/>
<path d="M44.9467 23.9755L34.4499 13.4787H34.4498L29.0247 8.05368C28.969 7.99778 28.9022 7.95331 28.8283 7.92237C28.7547 7.89161 28.6751 7.875 28.5937 7.875H17.625C17.2885 7.875 17.0156 8.1479 17.0156 8.48435V11.5312H10.3125C9.97603 11.5312 9.70312 11.8041 9.70312 12.1406V36.5156C9.70312 36.7218 9.81237 36.8953 9.96917 37.0055C10.0099 37.0633 17.2425 44.2959 17.3003 44.3366C17.3194 44.3638 17.3465 44.3824 17.3691 44.4054C19.0178 44.7901 20.7338 45 22.4996 44.9999C34.4312 45.0004 44.1863 35.7144 44.9467 23.9755Z" fill="#E8573F"/>
<path d="M35.2495 14.3435C35.2186 14.2695 35.174 14.2029 35.1182 14.1471L29.0248 8.05368C28.969 7.99787 28.9024 7.95331 28.8284 7.92237C28.7547 7.89161 28.6751 7.875 28.5937 7.875H17.625C17.2884 7.875 17.0156 8.14781 17.0156 8.48435V11.5313H10.3125C9.97594 11.5313 9.70312 11.8041 9.70312 12.1406V36.5156C9.70312 36.8521 9.97594 37.1249 10.3125 37.1249H27.3749C27.7115 37.1249 27.9843 36.8521 27.9843 36.5156V33.4688H34.6874C35.024 33.4688 35.2968 33.1959 35.2968 32.8594V14.5782C35.2969 14.4968 35.2803 14.4171 35.2495 14.3435ZM29.2032 9.95537L33.2165 13.9687H29.2032V9.95537ZM26.7656 35.9062H10.9219V12.75H20.6719V18.2344C20.6719 18.5709 20.9447 18.8438 21.2812 18.8438H26.7656V35.9062ZM25.904 17.625H21.8907V13.6116L25.904 17.625ZM27.9844 32.25V18.2344C27.9844 18.153 27.9678 18.0735 27.937 17.9997C27.9061 17.9257 27.8615 17.8591 27.8057 17.8033L21.7123 11.7099C21.6565 11.6541 21.5899 11.6096 21.5159 11.5786C21.4422 11.5479 21.3626 11.5313 21.2812 11.5313H18.2343V9.09378H27.9844V14.5782C27.9844 14.9147 28.2572 15.1875 28.5937 15.1875H34.0781V32.25H27.9844Z" fill="#F4F6F9"/>
</g>
<defs>
<clipPath id="clip0_12_290">
<rect width="45" height="45" fill="white"/>
</clipPath>
</defs>
</svg>

<svg width="45" height="45" fill="none" xmlns="http://www.w3.org/2000/svg"><g clip-path="url(#clip0_12_290)"><path d="M0 22.5C0 34.928 10.073 45 22.5 45S45 34.928 45 22.5C45 10.073 34.927 0 22.5 0S0 10.073 0 22.5z" fill="#FA6E51"/><path d="M44.947 23.976L34.45 13.479l-5.425-5.425a.609.609 0 00-.431-.179H17.625a.61.61 0 00-.61.61v3.046h-6.703a.61.61 0 00-.609.61v24.375a.6.6 0 00.266.49c.04.057 7.274 7.29 7.331 7.33.02.028.046.046.07.07 1.648.384 3.364.594 5.13.594 11.931 0 21.686-9.286 22.447-21.024z" fill="#E8573F"/><path d="M35.25 14.344a.61.61 0 00-.132-.197l-6.093-6.093a.61.61 0 00-.431-.179H17.625a.61.61 0 00-.61.61v3.046h-6.703a.61.61 0 00-.609.61v24.375a.61.61 0 00.61.609h17.062a.61.61 0 00.61-.61V33.47h6.702a.61.61 0 00.61-.61V14.58a.606.606 0 00-.047-.236zm-6.047-4.389l4.014 4.014h-4.014V9.955zm-2.437 25.951H10.922V12.75h9.75v5.484c0 .337.273.61.61.61h5.484v17.062zm-.862-18.281h-4.013v-4.013l4.013 4.013zm2.08 14.625V18.234a.609.609 0 00-.178-.43l-6.094-6.094a.611.611 0 00-.43-.179h-3.048V9.094h9.75v5.484c0 .337.273.61.61.61h5.484V32.25h-6.094z" fill="#F4F6F9"/></g><defs><clipPath id="clip0_12_290"><path fill="#fff" d="M0 0h45v45H0z"/></clipPath></defs></svg>
